X: 1673
T: Liza's Waltz
B: australian traditional tunes wiki
M:3/4
L:1/8
R: Waltz
Q: 1/4=100
K:D
V:1 
"D"A2d2e2|f4g2|f6|"A7"e6|A2c2d2|e4f2|e6|"D"d6
|"D"A2d2f2|a4b2|a6|"G"g4g2|"D"f2A2d2|f4 "A7"e2|"D"d6-|"D7"d4f2|
"G"a4g2|B4f2|g4f2|"D"A4d2|f4e2|"G"B2c2d2|"Em"e2d2B2|"A7"A4f2|
"D"a4g2|"G"B4f2|g4f2|"D"A4d2|f4e2|"A7"B2c2A2|"D"d6-|d6||
% abcbook-tune_id 6342d53a3560cfc92febfdea


% abcbook-boost 0
% abcbook-tablature 
% abcbook-transpose 
% abcbook-lastupdated 1665324377318
% abcbook-soundfonts 
% abcbook-repeats 1
% NFF Book 2017

